icons/right-angle-24.svg

<svg xmlns="http://www.w3.org/2000/svg" viewBox="0 0 24 24"><path d="M20 20v1H4v-1H3V4h1V1H1v3h1v16H1v3h3v-1h16v1h3v-3zM2 2h1v1H2zm1 20H2v-1h1zm19 0h-1v-1h1z"/><path fill="none" d="M0 0h24v24H0z"/></svg>

<svg id="icons" xmlns="http://www.w3.org/2000/svg" viewBox="0 0 24 24"><defs><style>.cls-1{fill:none;}</style></defs><path d="M20,20v1H4V20H3V4H4V1H1V4H2V20H1v3H4V22H20v1h3V20ZM2,2H3V3H2ZM3,22H2V21H3Zm19,0H21V21h1Z"/><rect class="cls-1" width="24" height="24"/></svg>
